packages/core/src/svgs/strd.svg

<svg width="24" height="24" viewBox="0 0 24 24" fill="none" xmlns="http://www.w3.org/2000/svg">
<g clip-path="url(#clip0_31_19419)">
<path d="M0 0H24V24H0V0Z" fill="#E91179"/>
<path d="M14.2372 9.32997C14.1429 8.29711 13.14 7.71426 12.1714 7.71426C11.37 7.71426 10.3072 8.15569 10.29 9.06854C10.26 9.76283 10.83 10.0971 11.4043 10.3028C11.6529 10.3885 11.9357 10.4657 12.2443 10.53L13.4143 10.7914C14.0872 10.9371 14.6786 11.13 15.1929 11.3657C15.7072 11.6057 16.1443 11.8928 16.4914 12.2228C16.8381 12.5411 17.1128 12.9298 17.2972 13.3628C17.4772 13.7914 17.5714 14.2757 17.5757 14.8114C17.5924 15.5862 17.3645 16.3465 16.9243 16.9843C16.4561 17.6181 15.8124 18.1008 15.0729 18.3728C14.1439 18.7177 13.1577 18.882 12.1672 18.8571C9.79716 18.8571 6.84859 17.6914 6.42859 14.8114L9.64287 14.2371C9.72859 15.6214 10.92 16.2857 12.1286 16.2857C13.0757 16.2857 14.1257 15.8357 14.1429 14.8071C14.1343 14.1985 13.8429 13.9157 13.2857 13.6928C12.9643 13.5557 12.5572 13.4314 12.06 13.32L10.6372 12.99C9.46287 12.7243 8.53716 12.3 7.85573 11.7043C7.5186 11.4026 7.2532 11.0294 7.07894 10.6119C6.90468 10.1944 6.82597 9.74323 6.84859 9.2914C6.8293 8.51237 7.06729 7.74869 7.52573 7.11854C8.01265 6.47113 8.66575 5.9676 9.41573 5.6614C10.2891 5.30151 11.227 5.125 12.1714 5.14283C14.0014 5.14283 16.2 6.1114 17.2929 8.42569L14.2372 9.32997Z" fill="white"/>
</g>
<defs>
<clipPath id="clip0_31_19419">
<rect width="24" height="24" fill="white"/>
</clipPath>
</defs>
</svg>

<svg xmlns="http://www.w3.org/2000/svg" width="24" height="24" fill="none" viewBox="0 0 24 24"><g clip-path="url(#a)"><path fill="#E91179" d="M0 0h24v24H0z"/><path fill="#fff" d="M14.237 9.33c-.094-1.033-1.097-1.616-2.066-1.616-.801 0-1.864.442-1.881 1.355-.03.694.54 1.028 1.114 1.234.249.085.532.163.84.227l1.17.261a8.7 8.7 0 0 1 1.779.575c.514.24.951.527 1.298.857.347.318.622.707.806 1.14q.27.644.279 1.448a3.7 3.7 0 0 1-.652 2.173 4.03 4.03 0 0 1-1.851 1.389 7.8 7.8 0 0 1-2.906.484c-2.37 0-5.318-1.166-5.738-4.046l3.214-.574c.086 1.384 1.277 2.049 2.486 2.049.947 0 1.997-.45 2.014-1.479-.009-.609-.3-.891-.857-1.114a7 7 0 0 0-1.226-.373l-1.423-.33c-1.174-.266-2.1-.69-2.781-1.286a3.03 3.03 0 0 1-1.007-2.413 3.54 3.54 0 0 1 .677-2.172 4.5 4.5 0 0 1 1.89-1.458 6.9 6.9 0 0 1 2.755-.518c1.83 0 4.029.968 5.122 3.283z"/></g><defs><clipPath id="a"><path fill="#fff" d="M0 0h24v24H0z"/></clipPath></defs></svg>
